X:1
T:Away to Wisconsin
M:3/4
L:1/4
K:A
 E| E E E| F A F| F E C| E2 C/2D/2| E E E| F A F| F E C| E2 C/2D/2|\
 E E E| F A F/2F/2| ^E F G| A2 B/2B/2| c B A| F E E| F A B| A2||
